!!!OTL: 2. Des Deutschen Vaterland. / Zweiter Theil.
!!!COM: J. Cotta 
!!!ODT: 1815
!!!ARE: Europa, Mitteleuropa, Deutschland
!!!SCT: B0002A
!!!TXL: @@DE
!!!OPR: 2. Des Deutschen Vaterland.
!!!YEM: Copyright 1995, estate of Helmut Schaffrath.
**kern	**text
*ICvox	*
*Ivox	*
*M4/4	*
*met(c)	*
*k[]	*
*C:	*
!LO:TX:a:t=Etwas lebhafter.	!
{4g	6._Was
=1	=1
4.g	iſt
8cc	des
4.cc	Deut-
8b-	-ſchen
=2	=2
8.b-/	Va-
16a	-ter-
4a	-land?
4r}	.
{4a	So
=3	=3
4.d	nen-
8d	-ne
4.g	end-
8f	-lich
=4	=4
8.f	mir
16e	das
4e	Land!
4r}	.
{4cc	So
=5	=5
4.b	weit
8g	die
4.g	deut-
8b	-ſche
=6	=6
8.dd	Ʒun-
16cc	-ge
4cc	klingt
4r}	.
{4cc	und
=7	=7
4.b	Gott
8dd	im
4.ff	Him-
8b	-mel
=8	=8
8.dd	Lie-
16cc	-der
4cc	ſingt:
8r}	.
!LO:TX:a:t=Chor.	!
{8cc	Das
8b	ſoll
8cc	es
=9	=9
2dd	ſein,
8r	.
8dd	daſ
8cc	ſoll
8dd	es
=10	=10
2ee	ſein!
8r}	.
{8cc	Das,
8b	wackrer
8cc	.
=11	=11
4a	Deut-
4dd	-ſcher,
4cc	nen-
4b	-ne
=12	=12
2cc	dein!
8r}	.
{8cc	Das
8b	ſoll
8cc	es
=9	=9
2dd	ſein,
8r	.
8dd	das
8cc	ſoll
8dd	es
=10	=10
2ee	ſein,
8r}	.
{8cc	Das,
8b	wackrer
8cc	.
=11	=11
4a	Deut-
4dd	-ſcher,
4cc	nen-
4b	-ne
=12	=12
2cc	dein!
4r}	.
==	==
!!!AGN: politisch, national, Vaterlands - Lied
!!!GTL: Vaterlandslieder und Heimathgrüße
!!!ONB: ESAC (Essen Associative Code) Database: BOEHME
!!!AMT: simple quadruple
!!!AIN: vox
!!!EED: Helmut Schaffrath
!!!EEV: 1.0
!! Mel. v. J. Cotta. 1815.
!!Text: E. Moritz Arndt
!!!URL-scan: https://archive.org/details/BoehmeVtLieder1895/page/n27/mode/2up
!!!ENC: Anna Maria Matuszewska
!!!EEV: 2024/26/03
*-	*-
